X:33
T:Spootiskerry
C:Ian Burnes
S:Bernie Waugh
R:Reel
M:2/4
L:1/16
K:D
|:DE|"G"G2DE GDEG|DEGA "D"B2AB|"G"G2DE "Em"GABd|"C"eged "D"B2AB|!
"G"G2DE GDEG|DEGA B2AB|"C"g2ed edB2|"D"dBAB "G"G2:|!
ef|"Em"g2ed edB2|BABG "C"E2DE|"G"GABd eged|"D"B2A2 A2ef|!
"Em"g2ed edB2|BABG "C"E2DE|"G"GABd "D"eged|"G"B2G2 G2ef|!
"Em"g2ed edB2|BABG "C"E2DE|"G"GABd eged|"D"B2A2 A2DE|!
"G"G2DE "Am7"GDEG|"Bm"DEGA "C"B2AB|"G"g2ed "C"edB2|"D"dBAB "G"G4|]

